!!!SOCIAL_FUNCTION:	social gatherings
!!!PDT:	1939
!!!OTL: No_90_"I_Look_Like_a_Sea_Parrot".krn
!!!LANG: Non-Tone
!!!LING_GROUP: Wakashan
!!!REG: Pacific Northwest
**kern
*staff1
=1-
*clefF4
*k[f#c#g#d#a#]
*M2/4
4r
4B\
=2!|:
4c#\
8B\
8r
=3
*M3/4
[2c#\
8.c#\L]
16d#\Jk
=4||
*M2/4
8.d#\L
16B\Jk
4B\
=5
4r
4B\
=6
4c#\
8B\
8r
=7||
*M3/4
[2B\
8.B\L]
16c#\Jk
=8||
*M2/4
8.c#\L
16B\Jk
4B\
=9
4r
4B\
=10
4c#\
8B\
8r
=11
[2B\
=12
8.B\L]
16c#\Jk
8.B\L
16F#\Jk
=13||
*M3/4
4F#\
4E\
4C#/
=14||
*M2/4
4.F#\
8E\
=15||
*M3/4
2.C#/
=16||
*M2/4
4.E\
8C#/
=17||
*M3/4
4BB/
4r
4BB/
=18||
*M2/4
4.F#\
8E\
=19||
*M3/4
2.C#/
=20||
*M2/4
4.E\
8C#/
=21
4BB/
4r
=22
4BB/
4C#/
=23
4BB/
4BB/
=24
2BB/
=25
4.C#/
8C#/
=26||
*M3/4
4C#/
4r
4B\
=27:|!
*M2/4
2BB/
==
*-
